brandFactory_export/2.Regular/Farmacia _2Regular.svg

<?xml version="1.0" encoding="UTF-8"?>
<svg width="24px" height="24px" viewBox="0 0 24 24" version="1.1" xmlns="http://www.w3.org/2000/svg" xmlns:xlink="http://www.w3.org/1999/xlink">
    <title>2.Regular/Farmacia _2Regular</title>
    <g id="Symbols" stroke="none" stroke-width="1" fill="none" fill-rule="evenodd">
        <g id="2.Regular/Farmacia-_2Regular" fill="#5CB615" fill-rule="nonzero">
            <path d="M18.3663866,17.8722689 C17.9630252,18.1915966 17.502521,18.4134454 17.0319328,18.5579832 C18.0336134,17.8588235 18.5747899,16.9915966 18.5747899,15.7512605 C18.5747899,14.4638655 17.6067227,13.6 16.7193277,13.0957983 C16.8605042,12.9680672 16.994958,12.8302521 17.1226891,12.6823529 C17.2605042,12.7428571 17.3747899,12.8134454 17.4991597,12.9042017 C17.6,12.9781513 17.6941176,13.0487395 17.794958,13.1058824 C18.6621849,13.6134454 19.2470588,14.5747899 19.3210084,15.6134454 C19.3579832,16.1411765 19.2840336,17.1428571 18.3663866,17.8722689 M13.3411765,18.6722689 L13.3411765,14.6016807 C14.0470588,14.5277311 14.7327731,14.3294118 15.3680672,14.0168067 C15.9697479,14.2218487 17.1697479,14.8605042 17.1697479,15.7512605 C17.1697479,16.8537815 16.5680672,17.6134454 13.3411765,18.6722689 M14.0268908,22.2487395 L11.405042,22.2487395 C11.5798319,21.7478992 11.9932773,21.5327731 12.7159664,21.5327731 C13.4386555,21.5327731 13.8521008,21.7478992 14.0268908,22.2487395 M7.89243697,8.93781513 L7.89243697,8.70252101 L17.0655462,8.70252101 L17.0655462,9.03193277 C17.0218487,11.7882353 14.8436975,13.2302521 12.7092437,13.2302521 C10.4,13.2302521 7.91932773,12.1008403 7.89243697,8.93781513 M5.47226891,5.61680672 C5.69411765,4.34621849 6.53109244,3.17310924 7.76806723,2.39663866 C10.9378151,0.413445378 13.8756303,2.1210084 14.0268908,2.20840336 C14.0369748,2.21176471 14.9176471,2.70588235 15.0588235,3.53277311 C15.1462185,4.03361345 14.9478992,4.59831933 14.4705882,5.21344538 C14.3764706,5.13277311 14.0773109,4.78655462 14.0168067,3.60336134 C14.0067227,3.39831933 13.9058824,3.20672269 13.7445378,3.08235294 C13.6605042,3.01848739 11.6268908,1.50252101 8.61512605,2.96134454 C7.55966387,3.47226891 6.82016807,4.09411765 6.38991597,5.62016807 C6.17478992,6.38319328 6.20840336,7.22352941 6.48739496,7.99327731 L6.4907563,7.99663866 L6.4907563,8.93781513 C6.4907563,9.10588235 6.50420168,9.26722689 6.51764706,9.42857143 C5.48907563,8.27226891 5.27731092,6.75294118 5.47226891,5.61680672 M20.7226891,15.512605 C20.6151261,14.0201681 19.7647059,12.6319328 18.5042017,11.892437 C18.4470588,11.8588235 18.3932773,11.8151261 18.3361345,11.7747899 C18.2016807,11.6739496 18.0605042,11.5798319 17.9159664,11.4957983 C18.2789916,10.7327731 18.4705882,9.89915966 18.4739496,9.05210084 L18.4773109,7.99663866 C18.4773109,7.60672269 18.1613445,7.29411765 17.7747899,7.29411765 L7.74453782,7.29411765 C7.6302521,6.87394958 7.62689076,6.4302521 7.74117647,6.01008403 C8.06386555,4.87394958 8.56134454,4.55798319 9.22689076,4.23193277 C10.9243697,3.41176471 12.1445378,3.81512605 12.6420168,4.05714286 C12.7563025,5.19327731 13.1058824,5.97310924 13.6840336,6.37983193 C14.1445378,6.70588235 14.6621849,6.71932773 14.9647059,6.62857143 C15.092437,6.59159664 15.2033613,6.5210084 15.2941176,6.42352941 C16.2420168,5.36134454 16.6285714,4.30252101 16.4470588,3.27731092 C16.1781513,1.77478992 14.7529412,0.998319328 14.7260504,0.98487395 C14.5747899,0.890756303 10.9478992,-1.25042017 7.02521008,1.2 C5.44537815,2.18823529 4.37647059,3.70756303 4.08739496,5.37478992 C3.75462185,7.29747899 4.3092437,10.0773109 6.96470588,11.5831933 C7.01848739,11.6134454 7.07563025,11.610084 7.13277311,11.6268908 C8,13.3008403 9.71092437,14.3865546 11.9361345,14.594958 L11.9361345,20.205042 C10.6352941,20.4739496 9.90252101,21.4352941 9.90252101,22.9478992 C9.90252101,23.3378151 10.2184874,23.6504202 10.605042,23.6504202 L14.8302521,23.6504202 C15.2201681,23.6504202 15.5327731,23.3344538 15.5327731,22.9478992 C15.5327731,21.3714286 14.7428571,20.3865546 13.3411765,20.1647059 L13.3411765,20.0705882 C13.9159664,20.1781513 14.5042017,20.2319328 15.0890756,20.2285714 C16.3193277,20.2285714 17.9563025,19.9932773 19.2436975,18.9680672 C20.2789916,18.1478992 20.8201681,16.8840336 20.7226891,15.512605" id="Farmacia-_2Regular"></path>
        </g>
    </g>
</svg>

<svg width="24" height="24" viewBox="0 0 24 24" xmlns="http://www.w3.org/2000/svg"><path d="M18.366 17.872c-.403.32-.863.541-1.334.686 1.002-.7 1.543-1.566 1.543-2.807 0-1.287-.968-2.151-1.856-2.655.142-.128.276-.266.404-.414.138.06.252.131.376.222.101.074.195.145.296.202.867.507 1.452 1.469 1.526 2.507.037.528-.037 1.53-.955 2.26m-5.025.8v-4.071a6.007 6.007 0 002.027-.585c.602.205 1.802.844 1.802 1.734 0 1.103-.602 1.862-3.829 2.921m.686 3.577h-2.622c.175-.501.588-.716 1.311-.716s1.136.215 1.31.716M7.893 8.938v-.235h9.174v.329c-.044 2.756-2.222 4.198-4.357 4.198-2.309 0-4.79-1.13-4.817-4.292m-2.42-3.321c.222-1.27 1.06-2.444 2.296-3.22 3.17-1.984 6.108-.276 6.259-.189.01.004.89.498 1.032 1.325.087.5-.111 1.065-.588 1.68-.095-.08-.394-.426-.454-1.61a.704.704 0 00-.272-.52c-.084-.065-2.118-1.58-5.13-.122-1.055.511-1.795 1.133-2.225 2.66a3.903 3.903 0 00.097 2.372l.004.004v.94c0 .169.013.33.027.492-1.029-1.157-1.24-2.676-1.046-3.812m15.25 9.896c-.107-1.493-.957-2.881-2.218-3.62-.057-.034-.11-.078-.168-.118a4.334 4.334 0 00-.42-.28 5.74 5.74 0 00.558-2.443l.003-1.055a.702.702 0 00-.702-.703H7.745A2.447 2.447 0 017.74 6.01c.323-1.136.82-1.452 1.486-1.778 1.697-.82 2.918-.417 3.415-.175.114 1.136.464 1.916 1.042 2.323.46.326.978.34 1.28.249a.721.721 0 00.33-.205c.948-1.063 1.335-2.121 1.153-3.147-.269-1.502-1.694-2.279-1.72-2.292-.152-.094-3.78-2.235-7.702.215-1.58.988-2.649 2.508-2.938 4.175-.332 1.922.222 4.702 2.878 6.208.053.03.11.027.168.044.867 1.674 2.578 2.76 4.803 2.968v5.61c-1.3.269-2.033 1.23-2.033 2.743 0 .39.315.702.702.702h4.225c.39 0 .703-.316.703-.702 0-1.577-.79-2.561-2.192-2.783v-.094a9.239 9.239 0 001.748.158c1.23 0 2.867-.236 4.155-1.26 1.035-.821 1.576-2.085 1.479-3.456" fill="#5CB615" fill-rule="nonzero"/></svg>
